X:1
T:Come Write Me Down
M:4/4
L:1/4
K:F
 C| F F FF/2-G/2| A A AF/2-A/2| c cd/2-c/2B/2-A/2| GG/2-A/2 GF/2-A/2|\
 c3/2 B/2A/2-G/2 F| D GF/2-E/2D/2-C/2| F F FG/2-A/2| B A GA/2-B/2|\
 c3/2 B/2 A(3G3.99999962500005/11.9999985000002G3.99999962500005/11.9999985000002A3.99999962500005/11.9999985000002G3.99999962500005/11.9999985000002A3.99999962500005/11.9999985000002B3.99999962500005/11.9999985000002|\
 A G F||
